svgs/duotone/user-clock.svg

<svg xmlns="http://www.w3.org/2000/svg" viewBox="0 0 640 512"><!-- Font Awesome Pro 6.0.0-alpha2 by @fontawesome - https://fontawesome.com License - https://fontawesome.com/license (Commercial License) --><defs><style>.fa-secondary{opacity:.4}</style></defs><path d="M224 256C294.695 256 352 198.691 352 128S294.695 0 224 0C153.312 0 96 57.309 96 128S153.312 256 224 256ZM320 368C320 348.699 323.221 330.176 328.961 312.797C311.867 307.16 293.646 304 274.664 304H173.336C77.609 304 0 381.602 0 477.332C0 496.477 15.523 512 34.664 512H395.002C349.691 480.156 320 427.586 320 368Z" class="fa-secondary"/><path d="M496 224.001C416.375 224.001 352 288.376 352 368.001S416.375 512.001 496 512.001S640 447.626 640 368.001S575.625 224.001 496 224.001ZM544 384.001H489.75C484.375 384.001 480 379.626 480 374.251V304.001C480 295.165 487.164 288.001 496 288.001C504.838 288.001 512 295.165 512 304.001V352.001H544C552.838 352.001 560 359.165 560 368.001S552.838 384.001 544 384.001Z" class="fa-primary"/></svg>

<svg xmlns="http://www.w3.org/2000/svg" viewBox="0 0 640 512"><!--! Font Awesome Pro 6.3.0 by @fontawesome - https://fontawesome.com License - https://fontawesome.com/license (Commercial License) Copyright 2023 Fonticons, Inc. --><defs><style>.fa-secondary{opacity:.4}</style></defs><path class="fa-primary" d="M496 224c-79.63 0-144 64.38-144 144s64.38 144 144 144s144-64.38 144-144S575.6 224 496 224zM544 384h-54.25C484.4 384 480 379.6 480 374.3V304c0-8.836 7.164-16 16-16c8.838 0 16 7.164 16 16v48h32c8.838 0 16 7.164 16 15.1S552.8 384 544 384z"/><path class="fa-secondary" d="M224 256c70.7 0 128-57.31 128-128S294.7 0 224 0C153.3 0 96 57.31 96 128S153.3 256 224 256zM320 368c0-19.3 3.221-37.82 8.961-55.2C311.9 307.2 293.6 304 274.7 304H173.3C77.61 304 0 381.7 0 477.4C0 496.5 15.52 512 34.66 512H395C349.7 480.2 320 427.6 320 368z"/></svg>
